gtk-icons/Papirus-GTK/32x32/apps/alexandra.svg

<?xml version="1.0" encoding="UTF-8" standalone="no"?>
<!-- Created with Inkscape (http://www.inkscape.org/) -->

<svg
   xmlns:dc="http://purl.org/dc/elements/1.1/"
   xmlns:cc="http://creativecommons.org/ns#"
   xmlns:rdf="http://www.w3.org/1999/02/22-rdf-syntax-ns#"
   xmlns:svg="http://www.w3.org/2000/svg"
   xmlns="http://www.w3.org/2000/svg"
   xmlns:sodipodi="http://sodipodi.sourceforge.net/DTD/sodipodi-0.dtd"
   xmlns:inkscape="http://www.inkscape.org/namespaces/inkscape"
   id="svg2"
   version="1.1"
   inkscape:version="0.91 r"
   width="32"
   height="32"
   viewBox="0 0 32 32"
   sodipodi:docname="alexandra.svg">
  <metadata
     id="metadata8">
    <rdf:RDF>
      <cc:Work
         rdf:about="">
        <dc:format>image/svg+xml</dc:format>
        <dc:type
           rdf:resource="http://purl.org/dc/dcmitype/StillImage" />
        <dc:title></dc:title>
      </cc:Work>
    </rdf:RDF>
  </metadata>
  <defs
     id="defs6" />
  <sodipodi:namedview
     pagecolor="#ffffff"
     bordercolor="#666666"
     borderopacity="1"
     objecttolerance="10"
     gridtolerance="10"
     guidetolerance="10"
     inkscape:pageopacity="0"
     inkscape:pageshadow="2"
     inkscape:window-width="1547"
     inkscape:window-height="876"
     id="namedview4"
     showgrid="false"
     inkscape:zoom="3.77"
     inkscape:cx="17.142933"
     inkscape:cy="16.631605"
     inkscape:window-x="53"
     inkscape:window-y="24"
     inkscape:window-maximized="1"
     inkscape:current-layer="svg2" />
  <path
     style="opacity:1;fill:#11ab66;fill-opacity:1;stroke:none;stroke-width:2;stroke-miterlimit:4;stroke-dasharray:none;stroke-opacity:1"
     d="M 9 2 A 7 7 0 0 0 2 9 A 7 7 0 0 0 4.1445312 14.03125 C 4.0549206 14.238505 4 14.469318 4 14.71875 L 4 19 A 1 1 0 0 0 3 20 A 1 1 0 0 0 4 21 L 4 25.679688 C 4 26.521497 4.5749757 27.199219 5.2890625 27.199219 L 9.8164062 27.199219 L 8.15625 28.939453 A 1.1693678 0.70738407 0 0 0 9.1699219 30 L 14.5 30 L 19.832031 30 A 1.1693678 0.70738407 0 0 0 21 29.271484 A 1.1693678 0.70738407 0 0 0 20.84375 28.939453 L 19.183594 27.199219 L 23.710938 27.199219 C 24.425024 27.199219 25 26.521497 25 25.679688 L 25 22.287109 L 26.146484 23.044922 L 28.939453 24.892578 A 0.70738407 0.80956234 0 0 0 30 24.189453 L 30 20.5 L 30 16.808594 A 0.70738407 0.80956234 0 0 0 29.271484 16 A 0.70738407 0.80956234 0 0 0 28.939453 16.109375 L 26.146484 17.953125 L 25 18.710938 L 25 14.71875 C 25 14.471601 24.945502 14.24297 24.857422 14.037109 A 7 7 0 0 0 27 9 A 7 7 0 0 0 20 2 A 7 7 0 0 0 14.503906 4.6777344 A 7 7 0 0 0 9 2 z M 9 5.5 C 10.927074 5.5 12.5 7.0729257 12.5 9 C 12.5 10.927074 10.927074 12.5 9 12.5 C 7.0729257 12.5 5.5 10.927074 5.5 9 C 5.5 7.0729257 7.0729257 5.5 9 5.5 z M 20 5.5 C 21.927074 5.5 23.5 7.0729257 23.5 9 C 23.5 10.927074 21.927074 12.5 20 12.5 C 18.072926 12.5 16.5 10.927074 16.5 9 C 16.5 7.0729257 18.072926 5.5 20 5.5 z M 9 6.5 C 7.6133658 6.5 6.5 7.6133658 6.5 9 C 6.5 10.386634 7.6133658 11.5 9 11.5 C 10.386634 11.5 11.5 10.386634 11.5 9 C 11.5 7.6133658 10.386634 6.5 9 6.5 z M 20 6.5 C 18.613366 6.5 17.5 7.6133658 17.5 9 C 17.5 10.386634 18.613366 11.5 20 11.5 C 21.386634 11.5 22.5 10.386634 22.5 9 C 22.5 7.6133658 21.386634 6.5 20 6.5 z "
     id="rect4144" />
  <path
     style="opacity:0.3;fill:#000000;fill-opacity:1;stroke:none;stroke-width:2;stroke-miterlimit:4;stroke-dasharray:none;stroke-opacity:1"
     d="M 9 4.5 C 7.0729257 4.5 5.5 6.0729257 5.5 8 C 5.5 8.1712743 5.526787 8.3351764 5.5507812 8.5 C 5.7721958 6.979041 6.9689173 5.779182 8.4882812 5.5527344 C 8.6533256 5.5187669 8.8244972 5.5 9 5.5 C 9.1755028 5.5 9.3466744 5.5187669 9.5117188 5.5527344 C 11.031083 5.779182 12.227804 6.979041 12.449219 8.5 C 12.473213 8.3351764 12.5 8.1712743 12.5 8 C 12.5 6.0729257 10.927074 4.5 9 4.5 z M 20 4.5 C 18.072926 4.5 16.5 6.0729257 16.5 8 C 16.5 8.1712743 16.526787 8.3351764 16.550781 8.5 C 16.772196 6.979041 17.968917 5.779182 19.488281 5.5527344 C 19.653326 5.5187669 19.824497 5.5 20 5.5 C 20.175503 5.5 20.346674 5.5187669 20.511719 5.5527344 C 22.031083 5.779182 23.227804 6.979041 23.449219 8.5 C 23.473213 8.3351764 23.5 8.1712743 23.5 8 C 23.5 6.0729257 21.927074 4.5 20 4.5 z M 2.0234375 8.4589844 A 7 7 0 0 0 2 9 A 7 7 0 0 0 4 13.878906 L 4 13.71875 C 4 13.469318 4.0549206 13.238505 4.1445312 13.03125 A 7 7 0 0 1 2.0234375 8.4589844 z M 26.974609 8.4980469 A 7 7 0 0 1 24.857422 13.037109 C 24.9455 13.24297 25 13.471601 25 13.71875 L 25 13.884766 A 7 7 0 0 0 27 9 A 7 7 0 0 0 26.974609 8.4980469 z M 6.5507812 8.5 C 6.518367 8.6614117 6.5 8.8286584 6.5 9 C 6.5 10.211131 7.349323 11.212859 8.4882812 11.447266 C 8.6568166 11.472384 8.8246849 11.5 9 11.5 C 9.1753151 11.5 9.3431835 11.472384 9.5117188 11.447266 C 10.650677 11.212859 11.5 10.211131 11.5 9 C 11.5 8.8286584 11.481633 8.6614117 11.449219 8.5 C 11.219311 9.6448615 10.215292 10.5 9 10.5 C 7.7847074 10.5 6.7806894 9.6448615 6.5507812 8.5 z M 17.550781 8.5 C 17.518367 8.6614117 17.5 8.8286584 17.5 9 C 17.5 10.211131 18.349323 11.212859 19.488281 11.447266 C 19.656817 11.472384 19.824685 11.5 20 11.5 C 20.175315 11.5 20.343183 11.472384 20.511719 11.447266 C 21.650677 11.212859 22.5 10.211131 22.5 9 C 22.5 8.8286584 22.481633 8.6614117 22.449219 8.5 C 22.219311 9.6448615 21.215292 10.5 20 10.5 C 18.784708 10.5 17.780689 9.6448615 17.550781 8.5 z M 3.1347656 19.5 A 1 1 0 0 0 3 20 A 1 1 0 0 0 4 21 L 4 20 A 1 1 0 0 1 3.1347656 19.5 z M 25 21.287109 L 25 22.287109 L 26.146484 23.044922 L 28.939453 24.892578 A 0.70738407 0.80956234 0 0 0 30 24.189453 L 30 23.189453 A 0.70738407 0.80956234 0 0 1 28.939453 23.892578 L 26.146484 22.044922 L 25 21.287109 z M 4 24.679688 L 4 25.679688 C 4 26.521497 4.5749757 27.199219 5.2890625 27.199219 L 8.8632812 27.199219 L 9.8164062 26.199219 L 5.2890625 26.199219 C 4.5749757 26.199219 4 25.521497 4 24.679688 z M 25 24.679688 C 25 25.521497 24.425024 26.199219 23.710938 26.199219 L 19.183594 26.199219 L 20.136719 27.199219 L 23.710938 27.199219 C 24.425024 27.199219 25 26.521497 25 25.679688 L 25 24.679688 z M 8.3144531 28.773438 L 8.15625 28.939453 A 1.1693678 0.70738407 0 0 0 9.1699219 30 L 14.5 30 L 19.832031 30 A 1.1693678 0.70738407 0 0 0 21 29.271484 A 1.1693678 0.70738407 0 0 0 20.84375 28.939453 L 20.685547 28.773438 A 1.1693678 0.70738407 0 0 1 19.832031 29 L 14.5 29 L 9.1699219 29 A 1.1693678 0.70738407 0 0 1 8.3144531 28.773438 z "
     id="path4169" />
  <path
     style="opacity:0.1;fill:#ffffff;fill-opacity:1;stroke:none;stroke-width:2;stroke-miterlimit:4;stroke-dasharray:none;stroke-opacity:1"
     d="M 9 2 A 7 7 0 0 0 2 9 A 7 7 0 0 0 2.0234375 9.4589844 A 7 7 0 0 1 9 3 A 7 7 0 0 1 14.503906 5.6777344 A 7 7 0 0 1 20 3 A 7 7 0 0 1 26.974609 9.4980469 A 7 7 0 0 0 27 9 A 7 7 0 0 0 20 2 A 7 7 0 0 0 14.503906 4.6777344 A 7 7 0 0 0 9 2 z M 9 6.5 C 8.8246849 6.5 8.6568166 6.5276157 8.4882812 6.5527344 C 7.349323 6.787141 6.5 7.7888686 6.5 9 C 6.5 9.1713416 6.518367 9.3385883 6.5507812 9.5 C 6.7806894 8.3551384 7.7847074 7.5 9 7.5 C 10.215292 7.5 11.219311 8.3551384 11.449219 9.5 C 11.481633 9.3385883 11.5 9.1713416 11.5 9 C 11.5 7.7888686 10.650677 6.787141 9.5117188 6.5527344 C 9.3431835 6.5276157 9.1753151 6.5 9 6.5 z M 20 6.5 C 19.824685 6.5 19.656817 6.5276157 19.488281 6.5527344 C 18.349323 6.787141 17.5 7.7888686 17.5 9 C 17.5 9.1713416 17.518367 9.3385883 17.550781 9.5 C 17.780689 8.3551384 18.784708 7.5 20 7.5 C 21.215292 7.5 22.219311 8.3551384 22.449219 9.5 C 22.481633 9.3385883 22.5 9.1713416 22.5 9 C 22.5 7.7888686 21.650677 6.787141 20.511719 6.5527344 C 20.343183 6.5276157 20.175315 6.5 20 6.5 z M 5.5507812 9.5 C 5.526787 9.6648236 5.5 9.8287257 5.5 10 C 5.5 11.927074 7.0729257 13.5 9 13.5 C 10.927074 13.5 12.5 11.927074 12.5 10 C 12.5 9.8287257 12.473213 9.6648236 12.449219 9.5 C 12.227804 11.020959 11.031083 12.220818 9.5117188 12.447266 C 9.3466744 12.481233 9.1755028 12.5 9 12.5 C 8.8244972 12.5 8.6533256 12.481233 8.4882812 12.447266 C 6.9689173 12.220818 5.7721958 11.020959 5.5507812 9.5 z M 16.550781 9.5 C 16.526787 9.6648236 16.5 9.8287257 16.5 10 C 16.5 11.927074 18.072926 13.5 20 13.5 C 21.927074 13.5 23.5 11.927074 23.5 10 C 23.5 9.8287257 23.473213 9.6648236 23.449219 9.5 C 23.227804 11.020959 22.031083 12.220818 20.511719 12.447266 C 20.346674 12.481233 20.175503 12.5 20 12.5 C 19.824497 12.5 19.653326 12.481233 19.488281 12.447266 C 17.968917 12.220818 16.772196 11.020959 16.550781 9.5 z M 4 14.878906 L 4 15.71875 C 4 15.469318 4.0549207 15.238505 4.1445312 15.03125 A 7 7 0 0 1 4 14.878906 z M 25 14.884766 A 7 7 0 0 1 24.857422 15.037109 C 24.9455 15.24297 25 15.471601 25 15.71875 L 25 14.884766 z M 29.271484 16 A 0.70738407 0.80956234 0 0 0 28.939453 16.109375 L 26.146484 17.953125 L 25 18.710938 L 25 19.710938 L 26.146484 18.953125 L 28.939453 17.109375 A 0.70738407 0.80956234 0 0 1 29.271484 17 A 0.70738407 0.80956234 0 0 1 30 17.808594 L 30 16.808594 A 0.70738407 0.80956234 0 0 0 29.271484 16 z M 4 19 A 1 1 0 0 0 3 20 A 1 1 0 0 0 3.1347656 20.5 A 1 1 0 0 1 4 20 L 4 19 z M 8.8632812 28.199219 L 8.15625 28.939453 A 1.1693678 0.70738407 0 0 0 8.3144531 29.773438 L 9.8164062 28.199219 L 8.8632812 28.199219 z M 19.183594 28.199219 L 20.685547 29.773438 A 1.1693678 0.70738407 0 0 0 21 29.271484 A 1.1693678 0.70738407 0 0 0 20.84375 28.939453 L 20.136719 28.199219 L 19.183594 28.199219 z "
     id="path4174" />
</svg>

<?xml version="1.0" encoding="UTF-8" standalone="no"?>
<!-- Created with Inkscape (http://www.inkscape.org/) -->
<svg id="svg2" xmlns:rdf="http://www.w3.org/1999/02/22-rdf-syntax-ns#" xmlns="http://www.w3.org/2000/svg" height="32" viewBox="0 0 32 32" width="32" version="1.1" xmlns:cc="http://creativecommons.org/ns#" xmlns:dc="http://purl.org/dc/elements/1.1/">
 <metadata id="metadata8">
  <rdf:RDF>
   <cc:Work rdf:about="">
    <dc:format>image/svg+xml</dc:format>
    <dc:type rdf:resource="http://purl.org/dc/dcmitype/StillImage"/>
    <dc:title/>
   </cc:Work>
  </rdf:RDF>
 </metadata>
 <path id="rect4144" d="m9 2a7 7 0 0 0 -7 7 7 7 0 0 0 2.1445 5.031c-0.0896 0.208-0.1445 0.438-0.1445 0.688v4.281a1 1 0 0 0 -1 1 1 1 0 0 0 1 1v4.68c0 0.841 0.575 1.519 1.2891 1.519h4.5273l-1.6602 1.74a1.1694 0.70738 0 0 0 1.0137 1.061h5.3301 5.332a1.1694 0.70738 0 0 0 1.168 -0.729 1.1694 0.70738 0 0 0 -0.156 -0.332l-1.66-1.74h4.527c0.714 0 1.289-0.678 1.289-1.519v-3.393l1.146 0.758 2.793 1.848a0.70738 0.80956 0 0 0 1.061 -0.704v-3.689-3.691a0.70738 0.80956 0 0 0 -0.729 -0.809 0.70738 0.80956 0 0 0 -0.332 0.109l-2.793 1.844-1.146 0.758v-3.992c0-0.247-0.054-0.476-0.143-0.682a7 7 0 0 0 2.143 -5.037 7 7 0 0 0 -7 -7 7 7 0 0 0 -5.496 2.6777 7 7 0 0 0 -5.504 -2.6777zm0 3.5c1.927 0 3.5 1.5729 3.5 3.5 0 1.927-1.573 3.5-3.5 3.5-1.9271 0-3.5-1.573-3.5-3.5 0-1.9271 1.5729-3.5 3.5-3.5zm11 0c1.927 0 3.5 1.5729 3.5 3.5 0 1.927-1.573 3.5-3.5 3.5s-3.5-1.573-3.5-3.5c0-1.9271 1.573-3.5 3.5-3.5zm-11 1c-1.3866 0-2.5 1.1134-2.5 2.5 0 1.387 1.1134 2.5 2.5 2.5 1.387 0 2.5-1.113 2.5-2.5 0-1.3866-1.113-2.5-2.5-2.5zm11 0c-1.387 0-2.5 1.1134-2.5 2.5 0 1.387 1.113 2.5 2.5 2.5s2.5-1.113 2.5-2.5c0-1.3866-1.113-2.5-2.5-2.5z" fill="#11ab66"/>
 <path id="path4169" opacity=".3" d="m9 4.5c-1.9271 0-3.5 1.5729-3.5 3.5 0 0.1713 0.0268 0.3352 0.0508 0.5 0.2214-1.521 1.4181-2.7208 2.9375-2.9473 0.165-0.0339 0.3362-0.0527 0.5117-0.0527s0.3467 0.0188 0.5117 0.0527c1.5193 0.2265 2.7163 1.4263 2.9373 2.9473 0.024-0.1648 0.051-0.3287 0.051-0.5 0-1.9271-1.573-3.5-3.5-3.5zm11 0c-1.927 0-3.5 1.5729-3.5 3.5 0 0.1713 0.027 0.3352 0.051 0.5 0.221-1.521 1.418-2.7208 2.937-2.9473 0.165-0.0339 0.336-0.0527 0.512-0.0527s0.347 0.0188 0.512 0.0527c1.519 0.2265 2.716 1.4263 2.937 2.9473 0.024-0.1648 0.051-0.3287 0.051-0.5 0-1.9271-1.573-3.5-3.5-3.5zm-17.977 3.959a7 7 0 0 0 -0.0234 0.541 7 7 0 0 0 2 4.879v-0.16c0-0.25 0.0549-0.48 0.1445-0.688a7 7 0 0 1 -2.1211 -4.572zm24.952 0.039a7 7 0 0 1 -2.118 4.539c0.089 0.206 0.143 0.435 0.143 0.682v0.166a7 7 0 0 0 2 -4.885 7 7 0 0 0 -0.025 -0.502zm-20.424 0.002c-0.0324 0.1614-0.0508 0.3287-0.0508 0.5 0 1.211 0.8493 2.213 1.9883 2.447 0.1685 0.025 0.3364 0.053 0.5117 0.053s0.3432-0.028 0.5117-0.053c1.1393-0.234 1.9883-1.236 1.9883-2.447 0-0.1713-0.018-0.3386-0.051-0.5-0.23 1.1449-1.234 2-2.449 2-1.2153 0-2.2193-0.8551-2.4492-2zm11 0c-0.033 0.1614-0.051 0.3287-0.051 0.5 0 1.211 0.849 2.213 1.988 2.447 0.169 0.025 0.337 0.053 0.512 0.053s0.343-0.028 0.512-0.053c1.139-0.234 1.988-1.236 1.988-2.447 0-0.1713-0.018-0.3386-0.051-0.5-0.23 1.1449-1.234 2-2.449 2s-2.219-0.8551-2.449-2zm-14.416 11a1 1 0 0 0 -0.1348 0.5 1 1 0 0 0 1 1v-1a1 1 0 0 1 -0.8652 -0.5zm21.865 1.787v1l1.146 0.758 2.793 1.848a0.70738 0.80956 0 0 0 1.061 -0.704v-1a0.70738 0.80956 0 0 1 -1.061 0.704l-2.793-1.848-1.146-0.758zm-21 3.393v1c0 0.841 0.575 1.519 1.2891 1.519h3.5742l0.9531-1h-4.5273c-0.7141 0-1.2891-0.678-1.2891-1.519zm21 0c0 0.841-0.575 1.519-1.289 1.519h-4.527l0.953 1h3.574c0.714 0 1.289-0.678 1.289-1.519v-1zm-16.686 4.093l-0.1583 0.166a1.1694 0.70738 0 0 0 1.0137 1.061h5.3301 5.332a1.1694 0.70738 0 0 0 1.168 -0.729 1.1694 0.70738 0 0 0 -0.156 -0.332l-0.158-0.166a1.1694 0.70738 0 0 1 -0.854 0.227h-5.332-5.3301a1.1694 0.70738 0 0 1 -0.8554 -0.227z"/>
 <path id="path4174" opacity=".1" d="m9 2a7 7 0 0 0 -7 7 7 7 0 0 0 0.0234 0.459 7 7 0 0 1 6.9766 -6.459 7 7 0 0 1 5.504 2.6777 7 7 0 0 1 5.496 -2.6777 7 7 0 0 1 6.975 6.498 7 7 0 0 0 0.025 -0.498 7 7 0 0 0 -7 -7 7 7 0 0 0 -5.496 2.6777 7 7 0 0 0 -5.504 -2.6777zm0 4.5c-0.1753 0-0.3432 0.0276-0.5117 0.0527-1.139 0.2344-1.9883 1.2362-1.9883 2.4473 0 0.1713 0.0184 0.3386 0.0508 0.5 0.2299-1.1449 1.2339-2 2.4492-2 1.215 0 2.219 0.8551 2.449 2 0.033-0.1614 0.051-0.3287 0.051-0.5 0-1.2111-0.849-2.2129-1.9883-2.4473-0.1685-0.0251-0.3364-0.0527-0.5117-0.0527zm11 0c-0.175 0-0.343 0.0276-0.512 0.0527-1.139 0.2344-1.988 1.2362-1.988 2.4473 0 0.1713 0.018 0.3386 0.051 0.5 0.23-1.1449 1.234-2 2.449-2s2.219 0.8551 2.449 2c0.033-0.1614 0.051-0.3287 0.051-0.5 0-1.2111-0.849-2.2129-1.988-2.4473-0.169-0.0251-0.337-0.0527-0.512-0.0527zm-14.449 3c-0.024 0.1648-0.0508 0.3287-0.0508 0.5 0 1.927 1.5729 3.5 3.5 3.5 1.927 0 3.5-1.573 3.5-3.5 0-0.1713-0.027-0.3352-0.051-0.5-0.221 1.521-1.418 2.721-2.9373 2.947-0.165 0.034-0.3362 0.053-0.5117 0.053s-0.3467-0.019-0.5117-0.053c-1.5194-0.226-2.7161-1.426-2.9375-2.947zm11 0c-0.024 0.1648-0.051 0.3287-0.051 0.5 0 1.927 1.573 3.5 3.5 3.5s3.5-1.573 3.5-3.5c0-0.1713-0.027-0.3352-0.051-0.5-0.221 1.521-1.418 2.721-2.937 2.947-0.165 0.034-0.336 0.053-0.512 0.053s-0.347-0.019-0.512-0.053c-1.519-0.226-2.716-1.426-2.937-2.947zm-12.551 5.379v0.84c0-0.25 0.0549-0.48 0.1445-0.688a7 7 0 0 1 -0.1445 -0.152zm21 0.006a7 7 0 0 1 -0.143 0.152c0.089 0.206 0.143 0.435 0.143 0.682v-0.834zm4.271 1.115a0.70738 0.80956 0 0 0 -0.332 0.109l-2.793 1.844-1.146 0.758v1l1.146-0.758 2.793-1.844a0.70738 0.80956 0 0 1 0.332 -0.109 0.70738 0.80956 0 0 1 0.729 0.809v-1a0.70738 0.80956 0 0 0 -0.729 -0.809zm-25.271 3a1 1 0 0 0 -1 1 1 1 0 0 0 0.1348 0.5 1 1 0 0 1 0.8652 -0.5v-1zm4.8633 9.199l-0.7071 0.74a1.1694 0.70738 0 0 0 0.1583 0.834l1.5019-1.574h-0.9531zm10.321 0l1.502 1.574a1.1694 0.70738 0 0 0 0.314 -0.502 1.1694 0.70738 0 0 0 -0.156 -0.332l-0.707-0.74h-0.953z" fill="#fff"/>
</svg>
